X:78
T: Der arme Reutersknab
N: A0428
O: Europa, Mitteleuropa, Deutschland
N: Ott 1534 No. 93.
R: Romanze, Ballade, Lied, Kriegslied
M: 3/1
L: 1/2
K: D
d2 | d2d2=f2 | e2e2d2 | =c4A2 | =F4
F2 | A4A2 | =c4c2 | d3e=f2 | e4
d2 | =c4=F2 | A4D2 | E6 | D4

@@@ Tune index: 391
